rospo-icon-theme-classic-common/64x64/apps/com.github.bcedu.shutdownscheduler.svg

<svg height="64" width="64" xmlns="http://www.w3.org/2000/svg"><path d="m59.958 31.828a28 28 0 0 1 -27.958 27.172 28 28 0 0 1 -27.956-26.828 28 28 0 0 0 -.044.828 28 28 0 0 0 28 28 28 28 0 0 0 28-28 28 28 0 0 0 -.042-1.172z" opacity=".2"/><circle cx="32" cy="32" fill="#4f4f4f" r="28"/><path d="m32 15a18 18 0 0 0 -18 18 18 18 0 0 0 18 18 18 18 0 0 0 18-18 18 18 0 0 0 -18-18zm0 4a14 14 0 0 1 14 14 14 14 0 0 1 -14 14 14 14 0 0 1 -14-14 14 14 0 0 1 14-14zm0 6c-1.108 0-2 .892-2 2v12c0 1.108.892 2 2 2s2-.892 2-2v-12c0-1.108-.892-2-2-2z" opacity=".2"/><path d="m32 14a18 18 0 0 0 -18 18 18 18 0 0 0 18 18 18 18 0 0 0 18-18 18 18 0 0 0 -18-18zm0 4a14 14 0 0 1 14 14 14 14 0 0 1 -14 14 14 14 0 0 1 -14-14 14 14 0 0 1 14-14zm0 6c-1.108 0-2 .892-2 2v12c0 1.108.892 2 2 2s2-.892 2-2v-12c0-1.108-.892-2-2-2z" fill="#fff"/><path d="m31.998047 4a28 28 0 0 0 -27.998047 28 28 28 0 0 0  .0175781.492188 28 28 0 0 1 27.9804689-27.492188h.001953a28 28 0 0 1 27.972656 27.5 28 28 0 0 0  .025391-.5 28 28 0 0 0 -27.998047-28z" fill="#fff" opacity=".1"/><circle cx="48" cy="48" opacity=".2" r="16"/><circle cx="48" cy="47" fill="#cd4242" r="16"/><path d="m47.5 37a1.5 1.5 0 0 0 -1.5 1.5v7.5 1.5 1.5h10.5a1.5 1.5 0 0 0 1.5-1.5 1.5 1.5 0 0 0 -1.5-1.5h-7.5v-7.5a1.5 1.5 0 0 0 -1.5-1.5z" fill="#fff"/></svg>

<svg xmlns="http://www.w3.org/2000/svg" width="64" height="64" version="1">
 <path style="opacity:0.2" d="M 59.958,31.828 A 28,28 0 0 1 32,59 28,28 0 0 1 4.044,32.172 28,28 0 0 0 4,33 28,28 0 0 0 32,61 28,28 0 0 0 60,33 28,28 0 0 0 59.958,31.828 Z"/>
 <circle style="fill:#4f4f4f" cx="32" cy="32" r="28"/>
 <path style="opacity:0.2" d="M 32,15 A 18,18 0 0 0 14,33 18,18 0 0 0 32,51 18,18 0 0 0 50,33 18,18 0 0 0 32,15 Z m 0,4 A 14,14 0 0 1 46,33 14,14 0 0 1 32,47 14,14 0 0 1 18,33 14,14 0 0 1 32,19 Z m 0,6 c -1.108,0 -2,0.892 -2,2 l 0,12 c 0,1.108 0.892,2 2,2 1.108,0 2,-0.892 2,-2 l 0,-12 c 0,-1.108 -0.892,-2 -2,-2 z"/>
 <path style="fill:#ffffff" d="M 32,14 A 18,18 0 0 0 14,32 18,18 0 0 0 32,50 18,18 0 0 0 50,32 18,18 0 0 0 32,14 Z m 0,4 A 14,14 0 0 1 46,32 14,14 0 0 1 32,46 14,14 0 0 1 18,32 14,14 0 0 1 32,18 Z m 0,6 c -1.108,0 -2,0.892 -2,2 l 0,12 c 0,1.108 0.892,2 2,2 1.108,0 2,-0.892 2,-2 l 0,-12 c 0,-1.108 -0.892,-2 -2,-2 z"/>
 <path style="opacity:0.1;fill:#ffffff" d="M 31.998047 4 A 28 28 0 0 0 4 32 A 28 28 0 0 0 4.0175781 32.492188 A 28 28 0 0 1 31.998047 5 L 32 5 A 28 28 0 0 1 59.972656 32.5 A 28 28 0 0 0 59.998047 32 A 28 28 0 0 0 32 4 L 31.998047 4 z"/>
 <circle cx="48" cy="48" r="16" style="opacity:0.2"/>
 <circle style="fill:#cd4242" cx="48" cy="47" r="16"/>
 <path style="fill:#ffffff" d="M 47.5 37 A 1.5 1.5 0 0 0 46 38.5 L 46 46 L 46 47.5 L 46 49 L 56.5 49 A 1.5 1.5 0 0 0 58 47.5 A 1.5 1.5 0 0 0 56.5 46 L 49 46 L 49 38.5 A 1.5 1.5 0 0 0 47.5 37 z"/>
</svg>
